X:150
T: Riley's
S: "First Collection of Traditional Irish Music" (M.Mulvihill)
Z: B.Black
L: 1/8
M: 4/4
R: reel
K: Edor
BEED GABd|dBAG FADA|BEED GBeg|fedf edBA|
BEED GABd|dBAG FADA|BEED GBeg|fedf (3eee ef||
eBef gbeg|fdad bdad|eBef gbeg|fedf e2 ef|
eBef gbeg|fdad bdad|efga bgaf|gfed Bged||
